src/assets/icons/align-left.svg

<svg width="14" height="14" viewBox="0 0 14 14" fill="none" xmlns="http://www.w3.org/2000/svg">
<g id="align-left">
<g clip-path="url(#clip0_156_4604)">
<path id="Vector" fill-rule="evenodd" clip-rule="evenodd" d="M0.706421 1.64288C0.377681 1.64288 0.111184 1.90938 0.111184 2.23812C0.111184 2.56686 0.377681 2.83336 0.706421 2.83336H13.4048C13.7336 2.83336 14.0001 2.56686 14.0001 2.23812C14.0001 1.90938 13.7336 1.64288 13.4048 1.64288H0.706421ZM0.595299 4.81748C0.266558 4.81748 6.10352e-05 5.08398 6.10352e-05 5.41272C6.10352e-05 5.74146 0.266558 6.00796 0.595299 6.00796H8.5318C8.86054 6.00796 9.12704 5.74146 9.12704 5.41272C9.12704 5.08398 8.86054 4.81748 8.5318 4.81748H0.595299ZM0.111184 8.58732C0.111184 8.25858 0.377681 7.99208 0.706421 7.99208H13.4048C13.7336 7.99208 14.0001 8.25858 14.0001 8.58732C14.0001 8.91606 13.7336 9.18256 13.4048 9.18256H0.706421C0.377681 9.18256 0.111184 8.91606 0.111184 8.58732ZM0.595299 11.1667C0.266558 11.1667 6.10352e-05 11.4332 6.10352e-05 11.7619C6.10352e-05 12.0907 0.266558 12.3572 0.595299 12.3572H8.5318C8.86054 12.3572 9.12704 12.0907 9.12704 11.7619C9.12704 11.4332 8.86054 11.1667 8.5318 11.1667H0.595299Z" fill="black"/>
</g>
</g>
<defs>
<clipPath id="clip0_156_4604">
<rect width="14" height="14" fill="white"/>
</clipPath>
</defs>
</svg>

<svg xmlns="http://www.w3.org/2000/svg" fill="none" viewBox="0 0 14 14"><g clip-path="url(#a)"><path fill="#000" fill-rule="evenodd" d="M.706 1.643a.595.595 0 0 0 0 1.19h12.699a.595.595 0 1 0 0-1.19zm-.11 3.174a.595.595 0 0 0 0 1.191h7.936a.595.595 0 0 0 0-1.19zM.11 8.587c0-.328.267-.595.595-.595h12.699a.595.595 0 1 1 0 1.19H.706a.595.595 0 0 1-.595-.595m.484 2.58a.595.595 0 1 0 0 1.19h7.937a.595.595 0 0 0 0-1.19z" clip-rule="evenodd"/></g><defs><clipPath id="a"><path fill="#fff" d="M0 0h14v14H0z"/></clipPath></defs></svg>
